svg/mcv4u/vector-line.svg

<svg xmlns="http://www.w3.org/2000/svg" viewBox="0 0 493.329 330.145" xml:space="preserve"><path fill="none" stroke="#CCC" stroke-miterlimit="10" d="M427.5 33v160m-50-160v160m-50-160v160m-50-160v160m-50-160v160m-50-160v160m-50-160v160m-50-160v160m350 17v120m-50-120v120m-50-120v120m-50-120v120m-50-120v120m-50-120v120m-50-120v120m-50-120v120M478 82.5H27m451 50H27m451 50H27m451 50H27m451 50H27"/><path fill="none" stroke="#000" stroke-miterlimit="10" d="M27.5 324V39"/><path d="m30.846 321.366-3.703 1.574-3.704-1.574 3.704 8.779zm0-279.836-3.703-1.573-3.704 1.573 3.704-8.779z"/><path fill="none" stroke="#000" stroke-miterlimit="10" d="M472 182.5H27"/><path d="m468.864 179.048 1.574 3.703-1.574 3.704 8.779-3.704z"/><text transform="translate(482.254 188.552)" font-family="'Equity Text B'" font-style="italic" font-size="24">x</text><text transform="translate(24.335 20.472)" font-family="'Equity Text B'" font-style="italic" font-size="24">y</text><text transform="translate(86.07 305.206)" font-family="'Equity Text B'" font-size="24">A(1,−2)</text><text transform="translate(146.958 257)"><tspan x="0" y="0" font-family="'Equity Text B'" font-weight="bold" font-size="24">m</tspan><tspan x="19.56" y="0" font-family="'Equity Text B'" font-size="24">=[3,2]</tspan></text><text transform="translate(308.142 114.02)" font-family="'Equity Text B'" font-size="24">P</text><path fill="none" stroke="#000" stroke-miterlimit="10" d="M22 82.5h5m-5 50h5m-5 50h5m-5 50h5m-5 50h5M427.5 183v5m-50-5v5m-50-5v5m-50-5v5m-50-5v5m-50-5v5m-50-5v5m-50-5v5"/><text transform="translate(73.349 206.396)" font-family="'Concourse T3'" font-size="16">1</text><text transform="translate(9.52 138.325)" font-family="'Concourse T3'" font-size="16">1</text><text transform="translate(7.28 188.251)" font-family="'Concourse T3'" font-size="16">0</text><text transform="translate(1.44 238.177)" font-family="'Concourse T3'" font-size="16">−1</text><text transform="translate(0 288.103)" font-family="'Concourse T3'" font-size="16">−2</text><text transform="translate(8.08 88.326)" font-family="'Concourse T3'" font-size="16">2</text><text transform="translate(123.148 206.396)" font-family="'Concourse T3'" font-size="16">2</text><text transform="translate(172.648 206.396)" font-family="'Concourse T3'" font-size="16">3</text><text transform="translate(222.348 206.396)" font-family="'Concourse T3'" font-size="16">4</text><text transform="translate(272.648 206.396)" font-family="'Concourse T3'" font-size="16">5</text><text transform="translate(322.728 206.396)" font-family="'Concourse T3'" font-size="16">6</text><text transform="translate(372.908 206.396)" font-family="'Concourse T3'" font-size="16">7</text><text transform="translate(422.888 206.396)" font-family="'Concourse T3'" font-size="16">8</text><path fill="none" stroke="#000" stroke-width="2" stroke-miterlimit="10" d="M438.983 42.705 37.711 308.56"/><path d="m434.596 41.169 3.357 2.219.734 3.956 5.272-7.936zM38.007 303.922l.734 3.956 3.357 2.218-9.363 1.761z"/><path fill="none" stroke="#FF5000" stroke-width="2" stroke-miterlimit="10" d="m221.87 186.547-144.8 95.865"/><path fill="#FF5000" d="m217.484 185.01 3.356 2.219.732 3.956 5.275-7.934z"/><circle cx="77.07" cy="282.412" r="4"/><circle cx="328.07" cy="116.412" r="4"/></svg>

<svg xmlns="http://www.w3.org/2000/svg" viewBox="0 0 493.329 330.145" xml:space="preserve"><path fill="none" stroke="#CCC" stroke-miterlimit="10" d="M427.5 33v160M377.5 33v160M327.5 33v160M277.5 33v160M227.5 33v160M177.5 33v160M127.5 33v160M77.5 33v160M427.5 210v120M377.5 210v120M327.5 210v120M277.5 210v120M227.5 210v120M177.5 210v120M127.5 210v120M77.5 210v120M478 82.5H27M478 132.5H27M478 182.5H27M478 232.5H27M478 282.5H27"/><path fill="none" stroke="#000" stroke-miterlimit="10" d="M27.5 324V39"/><path fill="#000" d="m30.846 321.366-3.703 1.574-3.704-1.574 3.704 8.779zM30.846 41.53l-3.703-1.573-3.704 1.573 3.704-8.779z"/><path fill="none" stroke="#000" stroke-miterlimit="10" d="M472 182.5H27"/><path fill="#000" d="m468.864 179.048 1.574 3.703-1.574 3.704 8.779-3.704z"/><text transform="translate(482.254 188.552)" font-family="'Equity Text B'" font-style="italic" font-size="24">x</text><text transform="translate(24.335 20.472)" font-family="'Equity Text B'" font-style="italic" font-size="24">y</text><text transform="translate(86.07 305.206)" font-family="'Equity Text B'" font-size="24">A(1,−2)</text><text transform="translate(146.958 257)"><tspan x="0" y="0" font-family="'Equity Text B'" font-weight="bold" font-size="24">m</tspan><tspan x="19.56" y="0" font-family="'Equity Text B'" font-size="24">=[3,2]</tspan></text><text transform="translate(308.142 114.02)" font-family="'Equity Text B'" font-size="24">P</text><path fill="none" stroke="#000" stroke-miterlimit="10" d="M22 82.5h5M22 132.5h5M22 182.5h5M22 232.5h5M22 282.5h5M427.5 183v5M377.5 183v5M327.5 183v5M277.5 183v5M227.5 183v5M177.5 183v5M127.5 183v5M77.5 183v5"/><text transform="translate(73.349 206.396)" font-family="'Concourse T3'" font-size="16">1</text><text transform="translate(9.52 138.325)" font-family="'Concourse T3'" font-size="16">1</text><text transform="translate(7.28 188.251)" font-family="'Concourse T3'" font-size="16">0</text><text transform="translate(1.44 238.177)" font-family="'Concourse T3'" font-size="16">−1</text><text transform="translate(0 288.103)" font-family="'Concourse T3'" font-size="16">−2</text><text transform="translate(8.08 88.326)" font-family="'Concourse T3'" font-size="16">2</text><text transform="translate(123.148 206.396)" font-family="'Concourse T3'" font-size="16">2</text><text transform="translate(172.648 206.396)" font-family="'Concourse T3'" font-size="16">3</text><text transform="translate(222.348 206.396)" font-family="'Concourse T3'" font-size="16">4</text><text transform="translate(272.648 206.396)" font-family="'Concourse T3'" font-size="16">5</text><text transform="translate(322.728 206.396)" font-family="'Concourse T3'" font-size="16">6</text><text transform="translate(372.908 206.396)" font-family="'Concourse T3'" font-size="16">7</text><text transform="translate(422.888 206.396)" font-family="'Concourse T3'" font-size="16">8</text><path fill="none" stroke="#000" stroke-width="2" stroke-miterlimit="10" d="M438.983 42.705 37.711 308.56"/><path fill="#000" d="m434.596 41.169 3.357 2.219.734 3.956 5.272-7.936zM38.007 303.922l.734 3.956 3.357 2.218-9.363 1.761z"/><path fill="none" stroke="#FF5000" stroke-width="2" stroke-miterlimit="10" d="m221.87 186.547-144.8 95.865"/><path fill="#FF5000" d="m217.484 185.01 3.356 2.219.732 3.956 5.275-7.934z"/><circle fill="#000" cx="77.07" cy="282.412" r="4"/><circle fill="#000" cx="328.07" cy="116.412" r="4"/></svg>
